X:161
%%etbk:tnset id:54,pos:3,rep:3x,ant:
%%etbk:tnset id:257,pos:2,rep:1x+A-Stop,ant:
%%etbk:tnset id:340,pos:3,rep:3x,ant:
%%etbk:wsite http://www.thesession.org/tunes/display/921
%%etbk:pldat 2016-06-23T18:15,2016-06-21T15:57,2016-05-05T15:37,2016-05-03T15:23,2016-03-11T16:56,2016-03-09T17:17,2016-03-08T15:50,2016-02-29T19:36,2016-02-23T16:46,2016-02-07T15:03,2016-02-04T19:37,2016-02-03T16:53,2016-02-02T18:01,2016-02-02T15:18,2016-02-01T17:58,2015-11-03T16:20,2015-10-28T16:15,2015-10-26T18:22,2015-10-22T19:17,2015-10-15T19:28,2015-10-03T16:20,2015-09-08T19:24,2015-06-22T18:52,2015-06-16T16:59,2015-05-27T18:56,2015-04-22T15:46,2015-03-12T18:43,2015-03-09T18:22,2015-03-03T18:18,2015-02-22T16:22,2015-02-17T17:40,2015-02-14T13:12,2015-02-11T16:19,2015-02-10T17:49,2015-01-28T17:07,2014-11-05T19:00,2014-11-04T17:06,2014-11-02T15:18,2014-10-29T16:11,2014-10-28T15:59,2014-10-25T15:02,2014-10-24T18:20,2014-10-12T14:09,2014-09-03T19:15,2014-09-02T19:06,2014-09-01T19:06,2014-08-31T14:21,2014-08-27T19:12,2014-08-21T18:27,2014-08-18T19:33,2014-06-22T16:07,2014-06-02T19:19,2014-03-05T19:34,2014-03-02T15:57,2014-02-25T19:11,2014-02-12T18:08,2013-10-30T15:39,2013-10-28T18:21,2013-10-24T18:52,2013-10-18T16:05,2013-10-14T18:46,2013-10-09T16:20,2013-09-11T19:05,2013-08-29T16:39
T: Knotted Cord, The
Z: Piano Box Version by Martin Fleischmann
H: Created 2013-02-19 /  Last Modified 2013-02-19
M: 4/4
L: 1/8
R: reel
K: Ador
|: "am"!3!A3B A!1!E !3!(3E!2!E!1!E | !3!A!1!ABd !5!edB!1!A | "G"!3!G3A !3!G!2!E!1!DE | !3!G!1!G!3!B!1!G !5!dGBG |
"am"!3!AAAB A!1!E !3!(3E!2!E!1!E | !3!A!1!ABd !5!edB!1!A  | "G"!1!G2 !2!(3B!3!^c!1!d !2!efge | !1!d!3!B!1!GA "am"!3!B!2!A A2 :|
|: "am"!2!e2!5!aa !1!e!3!a{b}ag | !1!e!3!aag !3!ag!1!e!2!d | "G"!1!e2!3!gg !1!e!3!ggf | !3!g!2!g!3!ga !3!g!1!ee!2!d |
"am"!1!e2!3!a{b}a !1!e!3!aag | !1!e!3!aa!2!g !5!ag!2!e!1!d | "G"!2!B3!1!d !3!ga!5!ba | !3!ge!1!d!2!B "am"B!1!A A2 :|


